img/icon-invest.svg

<svg width="110" height="110" viewBox="0 0 110 110" fill="none" xmlns="http://www.w3.org/2000/svg">
<g filter="url(#filter0_d_587_2090)">
<path fill-rule="evenodd" clip-rule="evenodd" d="M65.6724 15.2206C61.6958 15.9376 58.2766 17.7222 55.401 20.582C49.5688 26.3818 48.1254 35.0331 51.756 42.4281C52.9424 44.8447 54.9373 47.3263 56.9094 48.839L57.8362 49.5498L49.6696 49.6312C41.5958 49.7115 41.4937 49.7167 40.6851 50.0844C40.0354 50.3797 38.5874 51.7275 33.6487 56.6337L27.4303 62.8113L26.7917 62.3797C25.4294 61.4591 23.6137 61.2615 22.0001 61.8579C21.1803 62.1608 20.7101 62.5441 18.4974 64.7143C15.2699 67.8796 15 68.3228 15 70.4562C15 71.8477 15.046 72.0843 15.4617 72.8299C15.79 73.4189 18.9318 76.6435 26.341 83.996C36.3142 93.8931 36.8006 94.3497 37.7403 94.6947C38.993 95.1548 40.6168 95.0903 41.8303 94.5319C43.0759 93.9587 47.4761 89.5571 48.0503 88.3101C48.8474 86.5787 48.7234 84.7139 47.7128 83.2328L47.2894 82.6125L47.9137 81.9718C48.2569 81.6194 48.6851 81.2454 48.865 81.1406C49.098 81.0049 51.5713 80.9266 57.454 80.8687L65.7157 80.7874L66.6155 80.3251C67.3404 79.9527 70.0825 77.3112 80.7178 66.7401C93.2642 54.2695 93.9472 53.5606 94.4601 52.4783C94.9638 51.4156 95 51.2251 95 49.6312C95 48.0571 94.9601 47.8391 94.4914 46.8553C93.1945 44.1337 90.0087 42.4532 87.1011 42.9567C86.5205 43.0573 86.0195 43.1136 85.9876 43.0819C85.9557 43.0501 86.2131 42.3692 86.5594 41.5688C91.4602 30.2448 84.4285 17.3359 72.2049 15.2162C70.5329 14.9261 67.2935 14.9284 65.6724 15.2206ZM71.543 18.6324C77.5929 19.6861 82.2417 23.8073 84.0685 29.7364C84.4748 31.0554 84.5087 31.384 84.5087 34.0124C84.5087 36.6407 84.4748 36.9694 84.0685 38.2884C82.4863 43.4234 78.6846 47.3123 73.7282 48.8658C68.0647 50.6409 61.9911 49.1523 57.8186 44.9668C51.7558 38.8851 51.7598 29.0821 57.8275 23.0506C59.2318 21.6545 60.616 20.6907 62.4243 19.8499C63.642 19.2837 65.6477 18.6782 66.8609 18.5103C68.0078 18.3516 70.2694 18.4105 71.543 18.6324ZM68.3333 22.0357C67.5418 22.3787 67.3588 22.7293 67.2699 24.0714L67.1881 25.3082L64.2434 25.3913C62.6237 25.437 61.179 25.5329 61.0329 25.6043C60.5576 25.8363 60.1784 26.7461 60.2964 27.3712C60.4793 28.3407 61.0443 28.7098 62.4541 28.7806L63.6708 28.8418V34.0124V39.183L62.4541 39.2442C61.0443 39.315 60.4793 39.6841 60.2964 40.6536C60.1784 41.2787 60.5576 42.1885 61.0329 42.4205C61.179 42.4919 62.6237 42.5877 64.2434 42.6335L67.1881 42.7166L67.2699 43.9611C67.3614 45.3534 67.5994 45.7572 68.5027 46.0538C68.9228 46.1916 69.1682 46.1779 69.6173 45.9913C70.3914 45.6697 70.7055 45.0129 70.7055 43.716V42.6657L72.3006 42.6099C73.5818 42.565 74.0542 42.4763 74.7011 42.1597C77.5116 40.7841 78.5085 37.2909 76.8405 34.6632L76.4274 34.0124L76.8405 33.3616C78.1743 31.2604 77.838 28.5356 76.029 26.7872C74.998 25.7907 73.8674 25.3895 72.0899 25.3895H70.7055V24.3239C70.7055 23.0228 70.3932 22.3559 69.6366 22.0414C68.9719 21.7653 68.9575 21.7652 68.3333 22.0357ZM73.3247 29.077C74.2713 29.6331 74.4411 30.9732 73.6629 31.7472L73.1847 32.2227H70.2273H67.2699V30.5144V28.8061H70.0668C72.3826 28.8061 72.9429 28.8527 73.3247 29.077ZM73.6629 36.2776C74.4411 37.0515 74.2713 38.3917 73.3247 38.9478C72.9429 39.1721 72.3826 39.2186 70.0668 39.2186H67.2699V37.5103V35.802H70.2273H73.1847L73.6629 36.2776ZM89.6012 46.6867C89.9611 46.8528 90.4297 47.1548 90.6424 47.3575C91.1652 47.8557 91.639 48.9368 91.639 49.6312C91.639 50.996 91.5464 51.0979 78.4282 64.1625C71.5263 71.0364 65.6585 76.8202 65.3885 77.0154C64.903 77.367 64.8089 77.3716 56.5542 77.4521L48.2106 77.5335L47.4818 77.9199C47.0808 78.1323 46.3225 78.7145 45.7967 79.2131L44.8407 80.1201L37.3647 72.6853L29.8887 65.2506L35.7776 59.377C39.0504 56.1128 41.9006 53.4021 42.1931 53.2755C42.6236 53.0893 44.3528 53.0484 51.6819 53.0517C56.6111 53.0538 60.9333 53.1221 61.2865 53.2036C64.0217 53.8346 64.9225 57.3493 62.8097 59.1477C62.4402 59.4622 61.8754 59.7922 61.5546 59.8807C61.2299 59.9705 58.8073 60.0422 56.0879 60.0427L51.2045 60.0437L50.6483 60.5968C49.845 61.3957 49.9098 62.4496 50.8065 63.172C51.1258 63.4292 51.8039 63.4533 58.8016 63.4567L66.4475 63.4603L67.5541 62.5287C68.1625 62.0164 70.8691 59.7256 73.5685 57.4381C82.8215 49.5968 85.7396 47.1815 86.4429 46.7816C87.3202 46.2829 88.6411 46.2432 89.6012 46.6867ZM73.9775 52.463C73.9775 52.5338 67.7897 57.8016 67.5153 57.9643C67.41 58.0267 67.3702 57.584 67.4039 56.7208C67.4447 55.6716 67.3809 55.1709 67.1099 54.4173C66.9197 53.8878 66.7271 53.3447 66.6821 53.2105C66.6118 53.0006 66.9856 52.963 69.3483 52.9415C71.6866 52.9202 73.1765 52.7492 73.9366 52.415C73.959 52.4051 73.9775 52.4268 73.9775 52.463ZM24.6321 65.1699C24.918 65.3049 29.6135 69.8624 35.0666 75.2977C42.2934 82.5012 45.0025 85.3014 45.0599 85.6276C45.2308 86.5982 45.0142 86.9324 42.749 89.1929C40.3144 91.6226 39.8298 91.8964 38.8644 91.388C38.0631 90.9659 18.5511 71.4085 18.4277 70.9036C18.2218 70.061 18.5172 69.5908 20.5346 67.5501C23.2019 64.852 23.541 64.6551 24.6321 65.1699Z" fill="#06FF79"/>
</g>
<defs>
<filter id="filter0_d_587_2090" x="0" y="0" width="110" height="110" filterUnits="userSpaceOnUse" color-interpolation-filters="sRGB">
<feFlood flood-opacity="0" result="BackgroundImageFix"/>
<feColorMatrix in="SourceAlpha" type="matrix" values="0 0 0 0 0 0 0 0 0 0 0 0 0 0 0 0 0 0 127 0" result="hardAlpha"/>
<feOffset/>
<feGaussianBlur stdDeviation="7.5"/>
<feComposite in2="hardAlpha" operator="out"/>
<feColorMatrix type="matrix" values="0 0 0 0 0.0463889 0 0 0 0 0.695833 0 0 0 0 0.346333 0 0 0 0.8 0"/>
<feBlend mode="normal" in2="BackgroundImageFix" result="effect1_dropShadow_587_2090"/>
<feBlend mode="normal" in="SourceGraphic" in2="effect1_dropShadow_587_2090" result="shape"/>
</filter>
</defs>
</svg>

<svg width="110" height="110" fill="none" xmlns="http://www.w3.org/2000/svg"><g filter="url(#filter0_d_587_2090)"><path fill-rule="evenodd" clip-rule="evenodd" d="M65.672 15.22c-3.976.718-7.395 2.502-10.271 5.362-5.832 5.8-7.276 14.451-3.645 21.846 1.186 2.417 3.181 4.898 5.153 6.411l.927.71-8.166.082c-8.074.08-8.176.086-8.985.453-.65.296-2.098 1.643-7.036 6.55L27.43 62.81l-.638-.431c-1.363-.92-3.178-1.119-4.792-.522-.82.303-1.29.686-3.503 2.856C15.27 67.88 15 68.323 15 70.456c0 1.392.046 1.628.462 2.374.328.589 3.47 3.814 10.879 11.166 9.973 9.897 10.46 10.354 11.4 10.699 1.252.46 2.876.395 4.09-.163 1.245-.573 5.645-4.975 6.22-6.222.796-1.731.672-3.596-.338-5.077l-.424-.62.625-.641c.343-.353.771-.727.951-.831.233-.136 2.706-.214 8.589-.272l8.262-.082.9-.462c.724-.372 3.466-3.014 14.102-13.585 12.546-12.47 13.23-13.18 13.742-14.262.504-1.062.54-1.253.54-2.847 0-1.574-.04-1.792-.509-2.776-1.296-2.721-4.482-4.402-7.39-3.898-.58.1-1.082.157-1.113.125-.032-.032.225-.713.571-1.513 4.901-11.324-2.13-24.233-14.354-26.353-1.672-.29-4.912-.288-6.533.005zm5.871 3.412c6.05 1.054 10.699 5.175 12.525 11.104.407 1.32.44 1.648.44 4.276 0 2.629-.033 2.957-.44 4.276-1.582 5.135-5.383 9.024-10.34 10.578-5.663 1.775-11.737.286-15.91-3.9-6.062-6.08-6.058-15.884.01-21.915 1.404-1.396 2.788-2.36 4.596-3.201 1.218-.566 3.224-1.172 4.437-1.34 1.147-.158 3.408-.1 4.682.122zm-3.21 3.404c-.791.343-.974.693-1.063 2.035l-.082 1.237-2.945.083c-1.62.046-3.064.142-3.21.213-.475.232-.855 1.142-.737 1.767.183.97.748 1.339 2.158 1.41l1.217.06v10.342l-1.217.061c-1.41.071-1.975.44-2.158 1.41-.118.625.262 1.534.737 1.766.146.072 1.59.168 3.21.213l2.945.084.082 1.244c.091 1.392.33 1.796 1.233 2.093.42.138.665.124 1.114-.063.774-.321 1.088-.978 1.088-2.275v-1.05l1.596-.056c1.28-.045 1.753-.134 2.4-.45 2.81-1.376 3.808-4.87 2.14-7.497l-.414-.65.413-.651c1.334-2.102.998-4.826-.811-6.575-1.031-.996-2.162-1.397-3.94-1.397h-1.383v-1.066c0-1.301-.313-1.968-1.07-2.283-.664-.276-.678-.276-1.303-.005zm4.992 7.041c.946.556 1.116 1.896.338 2.67l-.478.476H67.27v-3.417h2.797c2.316 0 2.876.047 3.258.271zm.338 7.2c.778.774.608 2.115-.338 2.67-.382.225-.942.272-3.258.272H67.27v-3.417h5.915l.478.476zM89.6 46.688c.36.166.829.468 1.041.67.523.499.997 1.58.997 2.274 0 1.365-.093 1.467-13.21 14.531-6.903 6.874-12.77 12.658-13.04 12.853-.486.352-.58.357-8.835.437l-8.343.082-.73.386c-.4.212-1.159.794-1.684 1.293l-.956.907-7.476-7.435-7.476-7.434 5.889-5.874c3.272-3.264 6.123-5.975 6.415-6.102.43-.186 2.16-.227 9.489-.223 4.93.002 9.251.07 9.604.152 2.736.63 3.636 4.145 1.524 5.944-.37.314-.935.644-1.255.733-.325.09-2.748.161-5.467.162h-4.883l-.557.554c-.803.799-.738 1.853.158 2.575.32.257.998.281 7.996.285l7.646.003 1.106-.931c.608-.513 3.315-2.803 6.014-5.09 9.254-7.842 12.172-10.258 12.875-10.657.877-.5 2.198-.539 3.158-.095zm-15.623 5.776c0 .07-6.188 5.339-6.463 5.501-.105.063-.145-.38-.111-1.243.04-1.05-.023-1.55-.294-2.304-.19-.53-.383-1.072-.428-1.206-.07-.21.304-.248 2.666-.27 2.339-.02 3.829-.192 4.589-.526.022-.01.04.012.04.048zM24.632 65.17c.286.135 4.981 4.692 10.435 10.128 7.226 7.203 9.935 10.003 9.993 10.33.17.97-.046 1.304-2.311 3.565-2.435 2.43-2.92 2.703-3.885 2.195-.8-.422-20.313-19.98-20.436-20.484-.206-.843.09-1.313 2.107-3.354 2.667-2.698 3.006-2.895 4.097-2.38z" fill="#06FF79"/></g><defs><filter id="filter0_d_587_2090" x="0" y="0" width="110" height="110" filterUnits="userSpaceOnUse" color-interpolation-filters="sRGB"><feFlood flood-opacity="0" result="BackgroundImageFix"/><feColorMatrix in="SourceAlpha" values="0 0 0 0 0 0 0 0 0 0 0 0 0 0 0 0 0 0 127 0" result="hardAlpha"/><feOffset/><feGaussianBlur stdDeviation="7.5"/><feComposite in2="hardAlpha" operator="out"/><feColorMatrix values="0 0 0 0 0.0463889 0 0 0 0 0.695833 0 0 0 0 0.346333 0 0 0 0.8 0"/><feBlend in2="BackgroundImageFix" result="effect1_dropShadow_587_2090"/><feBlend in="SourceGraphic" in2="effect1_dropShadow_587_2090" result="shape"/></filter></defs></svg>
